X:28
T:Salt River Reel
M:2/4
L:1/16
Z: Jason R. Fruit <Jason R. Fruit@gmail.com>
K:A
cB|  A2EA e4 & x4 cBcB | A2af edcB | AEAB cBAc | BGEG BdcB |
A2AB e4 & x4 cBcB | A2af edcB | AEAB cABA | FGAB A2 :|
|: ag | f2fe fgae | [fA][eA][ec]2 [ee]3[ec] | [eB]2[eA][eB] e4 & x4 cBAB | e4 e4 & BcAc B2A2 |
f2fe fgae | [fA][eA][ec]2 [ee]3[ec] | [e2B2][eA][eB] e4 & x4 cABA | FGAB A2 :|

